Pods/ProtonCore-UIFoundations/libraries/UIFoundations/Sources/Assets.xcassets/Images/IconSet/ic-paper-plane.imageset/ic-paper-plane.svg

<svg width="24" height="24" viewBox="0 0 24 24" fill="none" xmlns="http://www.w3.org/2000/svg">
<path fill-rule="evenodd" clip-rule="evenodd" d="M19.0076 3.95428L3.99221 8.96882L10.1456 12.8049L19.0076 3.95428ZM11.2003 13.8715L15.0469 20.0127L20.0269 5.05626L11.2003 13.8715ZM21.5018 1.53988C22.0933 1.34343 22.6568 1.90613 22.4601 2.49689L15.9716 21.9836C15.7697 22.59 14.9517 22.6865 14.6119 22.144L9.87832 14.5866C9.75632 14.3919 9.59155 14.2273 9.39651 14.1054L1.85645 9.40499C1.31327 9.06565 1.40988 8.24866 2.01704 8.04701L21.5018 1.53988Z" fill="#0C0C14"/>
</svg>

<svg xmlns="http://www.w3.org/2000/svg" width="24" height="24" viewBox="0 0 24 24">
  <g class="ic-paper-plane">
    <path fill-rule="evenodd" d="M19.008 3.954 3.992 8.97l6.154 3.836 8.862-8.85ZM11.2 13.872l3.847 6.14 4.98-14.956-8.827 8.816ZM21.502 1.54a.758.758 0 0 1 .958.957l-6.488 19.487a.757.757 0 0 1-1.36.16l-4.734-7.557a1.518 1.518 0 0 0-.481-.482l-7.54-4.7a.755.755 0 0 1 .16-1.358L21.502 1.54Z" class="Icon"/>
  </g>
</svg>
